X:1
T:My Record Will Be There
T:My Record Will Be There
T:James A. Brown
T:James A. Brown, 1908
T:Public Domain Courtesy of the Cyber Hymnal™
T:Public Domain Courtesy of the Cyber Hymnal™
C:James A. Brown
Z:Public Domain
Z:Courtesy of the Cyber Hymnal™
%%score 1 ( 2 3 )
L:1/8
Q:1/4=100
M:4/4
K:Ab
V:1 treble 
V:2 bass 
V:3 bass 
V:1
 [CA]>[DB] | [Ec]>[Ec] [Ec]>[=D=B] [Ec]2 [EA]>[EA] | [DB]>[DB] [DA]>[DF] [DA]2 | [CA]>[DB] | %4
w: 1.~In a|day that is not far, At the|blaz- ing judg- ment bar,|Ev- en|
w: 2.~I must|meet each brok- en vow, That I|hold so light- ly now,|Ev- ery|
w: 3.~Ev- ery|sec- ret lust and thought There shall|be to judg- ment brought,|When the|
w: 4.~I must|meet my cank- ered gold, For whose|greed my life was sold,|It shall|
w: 5.~Let me|turn and seek the Lord, Let me|trust His ho- ly Word,|Let me|
 [Ec]>[Ec] [Ec]>[Ec] [Ec]>[Ec] [EB]>[=DA] | [EB]6 [CA]>[DB] | %6
w: now the aw- ful sum- mons I can|hear; I must|
w: heart- ache I have caused, each sigh, each|tear; Things that|
w: Lord in all His glor- y shall ap-|pear; All the|
w: mock me in the judg- ment’s lur- id|glare; Say- ing|
w: bow and call up- on Him while He’s|near; Then when|
 [Ec]>[Ec] [Ec]>[=D=B] [Ec]2 [EA]>[EA] | %7
w: meet the might- y God, I must|
w: time can- not e- rase, I must|
w: deeds of dark- est night Shall come|
w: we have sold for naught, All the|
w: I my rec- ord face, He will|
 [DB]>[DB] [DA]>[DF] [DA]2 [FA]>[_FB][Ec]>[Ec][Ec]>[Ec] [Ec]2 [DB]2 | [CA]6 |:"^Refrain" [Ae][Af] | %10
w: face His ho- ly Word, I must stand be- fore the judg- ment|bar.||
w: meet them face to face, When I stand be- fore the judg- ment|bar.|Oh, my|
w: out to greet the light, When I stand be- fore the judg- ment|bar.|When the|
w: Sav- ior’s blood has bought, You must stand be- fore the judg- ment|bar.||
w: an- swer in my place When I stand be- fore the judg- ment|bar.||
 [Ge]<[Ac] [Ac]>[A=B] [Ac]2 | [EA]>[EA] |1 [FB]<[FA] [FA]>[DF] [CE]2 [EA]>[EB] | %13
w: |||
w: rec- ord will be there,|Be its|pag- es dark or fair, When I|
w: books shall op- en be,|In that|morn- ing by and ~ ~ ~|
w: |||
w: |||
 [Ec]>[Ec] [Ec]>[Ae] [Ae]2 [Ac]2 | [GB]6 :|2 [FA]2 [FA]>[DF] || %16
w: |||
w: stand be- fore the judg- ment|bar.||
w: ~ ~ ~ ~ ~ ~|~|by, Oh, my|
w: |||
w: |||
 [CE]<[CA] [Ec]>[Ec] [Ec]<[DB] [CA]>[DG] | [CA]6 |] %18
w: ||
w: ||
w: rec- ord, oh, my rec- ord will be|there.|
w: ||
w: ||
V:2
 [A,,A,]>[A,,A,] | [A,,A,]>[A,,A,] [A,,A,]>[A,,A,] [A,,A,]2 [C,A,]>[C,A,] | %2
 [D,F,]>[D,F,] [D,F,]>[D,A,] [D,F,]2 | [A,,A,]>[A,,A,] | %4
 [A,,A,]>[A,,A,] [A,,A,]>[A,,A,] A,>A, [G,B,]>[F,B,] | [E,G,]6 [A,,A,]>[A,,A,] | %6
 [A,,A,]>[A,,A,] [A,,A,]>[A,,A,] [A,,A,]2 [C,A,]>[C,A,] | %7
 [D,F,]>[D,F,] [D,F,]>[D,A,] [D,F,]2 [D,A,]>[D,A,][E,A,]>[E,A,][E,A,]>[E,A,] [E,A,]2 [E,G,]2 | %8
 [A,,A,]6 |: !fermata![A,C][A,D] | [A,C]<[A,E] [A,E]>[A,=D] [A,E]2 | [A,C]>[A,C] |1 %12
 [D,D]<[D,D] [D,D]>[D,A,] [A,,A,]2 [C,A,]>[E,G,] | A,>A, A,>[A,C] [A,C]2 [A,E]2 | [E,E]6 :|2 %15
 [D,A,]2 [D,A,]>[D,A,] || [E,A,]<[E,A,] [E,A,]>[E,A,] [E,A,]<[E,G,] [E,A,]>[E,B,] | [A,,A,]6 |] %18
V:3
 x2 | x8 | x6 | x2 | x4 A,>A, x2 | x8 | x8 | x16 | x6 |: x2 | x6 | x2 |1 x8 | A,>A, A,3/2 x9/2 | %14
 x6 :|2 x4 || x8 | x6 |] %18

